src/assets/metronic/worbby/global/img/icon-tech3.svg

<?xml version="1.0" encoding="UTF-8"?>
<svg width="55px" height="65px" viewBox="0 0 55 65" version="1.1" xmlns="http://www.w3.org/2000/svg" xmlns:xlink="http://www.w3.org/1999/xlink">
    <!-- Generator: Sketch 41.2 (35397) - http://www.bohemiancoding.com/sketch -->
    <title>icon-tech</title>
    <desc>Created with Sketch.</desc>
    <defs>
        <linearGradient x1="0%" y1="49.9979293%" x2="99.9874969%" y2="49.9979293%" id="linearGradient-1">
            <stop stop-color="#FFB247" offset="0%"></stop>
            <stop stop-color="#FFCB33" offset="100%"></stop>
        </linearGradient>
    </defs>
    <g id="Worbby-Needor" stroke="none" stroke-width="1" fill="none" fill-rule="evenodd">
        <g id="Categories-List" transform="translate(-320.000000, -650.000000)">
            <g id="icon-tech" transform="translate(320.000000, 650.000000)">
                <g>
                    <path d="M27.0833333,54.1666667 C42.0409167,54.1666667 54.1666667,42.0409167 54.1666667,27.0833333 C54.1666667,12.12575 42.0409167,0 27.0833333,0 C12.12575,0 0,12.12575 0,27.0833333 C0,42.0409167 12.12575,54.1666667 27.0833333,54.1666667" id="Fill-1" fill="url(#linearGradient-1)"></path>
                    <path d="M48.0507083,48.063925 L48.0377083,48.063925 L16.947125,48.063925 L16.947125,33.5970917 L48.0507083,33.5970917 L48.0507083,48.063925 Z M49.7407083,30.205175 L15.244125,30.205175 C14.3092083,30.205175 13.554125,30.959175 13.554125,31.895175 L13.554125,49.753925 C13.554125,50.689925 14.3092083,51.443925 15.244125,51.443925 L49.7407083,51.443925 C50.675625,51.443925 51.429625,50.689925 51.429625,49.753925 L51.429625,31.895175 C51.429625,30.959175 50.675625,30.205175 49.7407083,30.205175 L49.7407083,30.205175 Z M5.78229167,61.6207583 L11.0072083,56.3958417 L53.951625,56.3958417 L59.1765417,61.6207583 L5.78229167,61.6207583 Z M12.007125,53.0028417 L52.963625,53.0028417 L52.963625,28.671175 L12.007125,28.671175 L12.007125,53.0028417 Z M64.4924583,62.1147583 L56.3685417,53.9908417 L56.3685417,26.9692583 C56.3685417,26.0332583 55.6145417,25.2792583 54.679625,25.2792583 L10.3182083,25.2792583 C9.38220833,25.2792583 8.62820833,26.0332583 8.62820833,26.9692583 L8.62820833,53.9908417 L0.492375,62.1147583 C0.011375,62.5957583 -0.131625,63.3367583 0.128375,63.959675 C0.388375,64.5847583 1.012375,64.999675 1.70029167,64.999675 L63.2964583,64.999675 C63.9854583,64.999675 64.5964583,64.5847583 64.8694583,63.959675 C65.1424583,63.3367583 64.9734583,62.5957583 64.4924583,62.1147583 L64.4924583,62.1147583 Z" id="Fill-3" fill="#1E2225"></path>
                </g>
            </g>
        </g>
    </g>
</svg>

<svg xmlns="http://www.w3.org/2000/svg" width="55" height="65"><defs><linearGradient id="a" x1="0%" x2="99.9875%" y1="49.9979%" y2="49.9979%"><stop stop-color="#FFB247" offset="0%"/><stop stop-color="#FFCB33" offset="100%"/></linearGradient></defs><g fill="none" fill-rule="evenodd"><path fill="url(#a)" d="M27.0833 54.1667c14.9576 0 27.0834-12.1258 27.0834-27.0834C54.1667 12.1257 42.041 0 27.0833 0 12.1257 0 0 12.1258 0 27.0833 0 42.041 12.1258 54.1667 27.0833 54.1667"/><path fill="#1E2225" d="M48.0507 48.064H16.947V33.597h31.1037v14.467zm1.69-17.8588H15.244c-.9348 0-1.69.754-1.69 1.69V49.754c0 .936.7552 1.69 1.69 1.69h34.4967c.935 0 1.689-.754 1.689-1.69V31.895c0-.936-.754-1.69-1.689-1.69zM5.7823 61.6208l5.225-5.225h42.9443l5.225 5.225H5.7822zm6.2248-8.618h40.9566V28.6712H12.007v24.3316zm52.4855 9.112l-8.124-8.124V26.9693c0-.936-.754-1.69-1.689-1.69H10.3183c-.936 0-1.69.754-1.69 1.69v27.0215l-8.1358 8.124c-.481.481-.624 1.222-.364 1.845.26.625.884 1.04 1.572 1.04h61.596c.689 0 1.3-.415 1.573-1.04.273-.623.104-1.364-.377-1.845z"/></g></svg>
